X:1
T:Title
%%score { ( 1 3 ) | ( 2 4 ) }
L:1/8
M:6/8
K:C
V:1 treble nm="Grand Piano"
V:3 treble 
V:2 bass 
V:4 bass 
V:1
 z3 z2[Q:1/4=100] [G,EG] | [G,G]A[B,EB] [Cc]B[A,EA] | [^F,_E^F]2 [A,EA] [G,=EG]2 [G,EG] | %3
 [G,G]A[B,EB] [Cc]B[A,EA] |[M:5/8] [^F,_E^F]2 [A,EA] [G,=EG]2 |[M:1/8] [CEG] | %6
[M:3/4] GA G [EG]2 [EG] | GA G [EG]2 [Ge] | d^c [Gd] [DGB]2 [EG=c] | [D^FB]2 [CFA] G3 | %10
[M:4/4] d2 ^c>d e2 d2 | [CEc]2 .[A,FA]2 [CEG]4 | d2 ^c>d e2 d2 | z2 [Af]2 z4 | A2 A>A [Gc]2 [Gc]2 | %15
 [Fd]2 [Fd]2 [Ge]4 | c2 c>c e2 c2 |[M:17/16] A-<AB-<B[Ec]/-[Ec]/-[Ec]/-[Ec]/-[Ec]/-[Ec]-<[Ec] | %18
[M:4/4] d2 ^c>d e2 d2 | [CEc]2 .[A,FA]2 [CEG]4 | d2 ^c>d e2 d2 | z2 [Af]2 z4 | A2 A>A [Gc]2 [Gc]2 | %23
 [Fd]2 [Fd]2 [Ge]4 | c2 c>c e2 c2 |[M:17/16] A-<AB-<B[Ec]/-[Ec]/-[Ec]/-[Ec]/-[Ec]/-[Ec]-<[Ec] |] %26
V:2
 z3 z2 C, | z A,C, z B,C, | C,2 C, C,2 C, | z A,C, z B,C, |[M:5/8] C,2 C, C,2 |[M:1/8] C, | %6
[M:3/4][K:treble] [G,B,F]2 [G,B,F][K:bass] [C,C]2 [C,C] | %7
 [G,B,F]2 [G,B,F][K:bass] [C,C]2 [^C,_B,] | B,_B, [D,=B,] D,2 D, | D,2 D, [G,B,]3 | %10
[M:4/4][K:treble] [G,B,F]2 [G,B,E]>[G,B,F] [G,B,G]2 [G,B,F]2 | C,2 z B, C,4 | %12
 [G,B,F]2 [G,B,E]>[G,B,F] [G,B,G]2 [G,B,F]2 | [C,C]2 .[C,A,]2 [C,C]4 | %14
 [F,CF]2 [F,CF]>[F,CF] [E,C]2 [E,C]2 | [G,C]2 [G,B,]2 [C,C]4 | %16
 [G,EG]2 [G,EG]>[G,EG] [G,CG]2 [G,EG]2 | %17
[M:17/16] [G,_E^F]-<[G,EF][G,D=F]-<[G,DF][K:bass][C,C]/-[C,C]/-[C,C]/-[C,C]/-[C,C]/-[C,C]-<[C,C] | %18
[M:4/4][K:treble] [G,B,F]2 [G,B,E]>[G,B,F] [G,B,G]2 [G,B,F]2 | C,2 z B, C,4 | %20
 [G,B,F]2 [G,B,E]>[G,B,F] [G,B,G]2 [G,B,F]2 | [C,C]2 .[C,A,]2 [C,C]4 | %22
 [F,CF]2 [F,CF]>[F,CF] [E,C]2 [E,C]2 | [G,C]2 [G,B,]2 [C,C]4 | %24
 [G,EG]2 [G,EG]>[G,EG] [G,CG]2 [G,EG]2 | %25
[M:17/16] [G,_E^F]-<[G,EF][G,D=F]-<[G,DF][K:bass][C,C]/-[C,C]/-[C,C]/-[C,C]/-[C,C]/-[C,C]-<[C,C] |] %26
V:3
 x6 | .E3 .E3 | x6 | .E3 .E3 |[M:5/8] x5 |[M:1/8] x |[M:3/4] x6 | x6 | G2 z2 z2 | x6 |[M:4/4] x8 | %11
 x8 | x8 | [Ec]2 z B, [Ge]4 | x8 | x8 | x8 |[M:17/16] x17/2 |[M:4/4] x8 | x8 | x8 | %21
 [Ec]2 z B, [Ge]4 | x8 | x8 | x8 |[M:17/16] x17/2 |] %26
V:4
 x6 | .C,3 .C,3 | x6 | .C,3 .C,3 |[M:5/8] x5 |[M:1/8] x |[M:3/4][K:treble] x3[K:bass] x3 | %7
 x3[K:bass] x3 | D,2 z2 z2 | x6 |[M:4/4][K:treble] x8 | z2 C,2 z4 | x8 | x8 | x8 | x8 | x8 | %17
[M:17/16] x4[K:bass] x9/2 |[M:4/4][K:treble] x8 | z2 C,2 z4 | x8 | x8 | x8 | x8 | x8 | %25
[M:17/16] x4[K:bass] x9/2 |] %26

